X: 40
T: JIG: Frieze Breeches
T: Cúnla
C: C: Trad.; S: Various
C: Set Leaders: Oleg, Anton, Tania
Z: Anton Zille ed.; ceolachan at The Session
N: https://thesession.org/members/26966/sets/99682
R: Jig
M: 6/8
L: 1/8
Q: 3/8=116
K: Dmaj
|:FED EFG|AdB =cAG|A2A BAG|FAF GED|
FED EFG|AdB =cAG|FAF GEA|1 DED D2E:|2 DED D2A||
|:d2e f2d|e2d cAG|A2A BAG|FAF GED|
d2e f2d|e2d cAG|FAF GEA|1 DED DFA:|2 DED D2D||
|:DED =c3|AdB =cAG|ABc dfd|dfd dAF|
DED =c3|AdB =cAG|FAF GEA|1 DED D2D:|2 DED D2A||
|:d2e fdd|Add fdd|c2d eAA|fed ecA|
d2e fdd|Add fdd|faf gec|1 dfe d2A:|2 dfe d2e||
|:fed edc|ded cAG|A2A BAG|FAF GED|
fed edc|ded cAG|FAF GEA|1 DED D2e:|2 DED D2E||

